X:1
T:Marseillaise
T:Marseillaise
T:Rouget de Lisle, 1792
T:Public Domain Courtesy of the Cyber Hymnal™
C:Rouget de Lisle, 1792
Z:Public Domain
Z:Courtesy of the Cyber Hymnal™
%%score ( 1 2 ) ( 3 4 )
L:1/8
Q:1/4=107
M:4/4
K:G
V:1 treble 
V:2 treble 
V:3 bass 
V:4 bass 
V:1
 D<D D/ | [B,G]2 [DG]2 [DA]2 [DA]2 | (d3 B) [B,G] z/ [DG]/ [DB]>[DG] | [CE]2 [Ec]4 [EA]>[DF] | %4
 [DG]4 z [DG] [DG]>[FA] | [GB]3 [GB] [GB]2 ([Ac]>[GB]) | [GB]2 [FA]2 z [FA] [FA]>[GB] | %7
 [Ac]3 [Ac] [Ac]2 ([Bd]>[Ac]) | [GB]4 z [Dd] [Dd]>[Dd] | [Dd]2 ([B,B]>[G,G]) [Dd]2 ([B,B]>[G,G]) | %10
 D4 z3/2 D/ D>D | [DA]2 [DA]2 [Dc]2 (A>F) | (AG) [DG]2 z [B,G][CG][D=F] | [CE]3 [EG] [DG]2 (FG) | %14
 [DA]4 z2 z [DA] | [D_B]3 [DB] [DA][DB][Dc][DB] | (_B2 A2) z2 (B>A) | G3 G G[G_B] [FA]>G | %18
 [DG]2 [DF]2 z2 z3/2 [Dd]/ | !>![Dd]4- [Dd]>[Dd] [B,B]>[G,G] | [A,A]4 z2 z3/2 [Dd]/ | %21
 !>![Dd]4- [Dd]>[Dd] [B,B]>[G,G] | [DA]4 z2 D2 | [DG]4 z2 [FA]2 | [GB]4 z4 | [Gc]4 [Gd]2 [Ge]2 | %26
 [FA]6 [FB]2 | [Gd]4- [Gd]>[DB] [Fc]>[FA] | G4- G3/2 |] %29
V:2
 D<D D/ | x8 | D4 x4 | x8 | x8 | x8 | x8 | x8 | x8 | x8 | D4 D<D D/ x3/2 | x6 F2 | D2 x6 | x6 ^C2 | %14
 x8 | x8 | D4 F2 x2 | G3 G G x3/2 G/ x | x8 | x8 | x8 | x8 | x6 D2 | x8 | x8 | x8 | x8 | x8 | %28
 G4- G3/2 |] %29
V:3
 D,<D, D,/ | [G,,G,]2 [B,,G,]2 [D,F,]2 [D,F,]2 | G,4 [G,,G,] z/ [B,,G,]/ [G,,G,]>[B,,G,] | %3
 [C,G,]2 [A,,A,]4 [C,A,]>[D,C] | [G,B,]4 z [G,B,] [G,B,]>[D,D] | [G,D]3 [G,D] [G,D]2 D2 | %6
 [D,D]2 [D,D]2 z [D,D] [D,D]>[D,D] | [F,D]3 [F,D] [F,D]2 D2 | [G,D]4 z [D,D] [D,D]>[D,D] | %9
 [D,D]2 ([B,,B,]>[G,,G,]) [D,D]2 ([B,,B,]>[G,,G,]) | D,4 z3/2 D,/ D,>D, | %11
 [D,F,]2 [D,F,]2 [D,A,]2 [D,C]2 | (CB,) [G,B,]2 z [G,,G,][A,,G,][B,,G,] | %13
 [C,G,]3 [C,G,] [C,G,]2 [E,A,]2 | [D,F,]4 z2 z [D,F,] | [D,G,]3 [D,G,] [D,F,][D,G,][D,A,][D,G,] | %16
 (A,2 G,2) z2 [D,C]2 | [G,_B,]3 [G,B,] [G,B,][G,D] [G,C]>[G,B,] | [D,_B,]2 [D,A,]2 z2 z3/2 [D,D]/ | %19
 [D,D]4- [D,D]>[D,D] [B,,B,]>[G,,G,] | [A,,A,]4 z2 z3/2 [D,D]/ | %21
 [D,D]4- [D,D]>[D,D] [B,,B,]>[G,,G,] | [D,F,]4 z2 D,2 | [B,,G,]4 z2 [D,D]2 | [G,D]4 z4 | %25
 [E,C]4 [D,B,]2 [^C,_B,]2 | [D,A,]6 [D,C]2 | [G,B,]4- [G,B,]>[G,B,] [D,A,]>[D,C] | %28
 [G,B,]4- [G,B,]3/2 |] %29
V:4
 D,<D, D,/ | x8 | (B,,3 D,) x4 | x8 | x8 | x6 (F,>G,) | x8 | x6 (D,>F,) | x8 | x8 | %10
 x11/2 D,/ D,>D, | x8 | G,2 x6 | x8 | x8 | x8 | D,4 x4 | x8 | x8 | x8 | x8 | x8 | x6 D,2 | x8 | %24
 x8 | x8 | x8 | x8 | x11/2 |] %29

